X: 33913
T: Red Shoes
R: reel
M: 4/4
K: Amixolydian
f|eAcA ceAc|dBGB gBGB|eAcA ceAc|dBgB AAAf|
eAcA ceAc|dBGB gBGB|ABcd efge|dGBd eAA:|
f|eAcA cacA|gdBG Bcda|eAcA cacA|dBgB AAAf|
eAcA cacA|gdBG Bcdg|afge fdec|dBgB AAA:|

